X: 1142
T: Top the Candle
C:Kennedy.
B:O'Neill's Music of Ireland
N:O'Neill's - 1142
Z:Transcribed by Stephen Foy (shf@access.digex.net)
Z:abc 1.6
M:9/8
R:slipjig
K:D
(DED) A z F F2 D | C (E E) z F G2 E | (DED) A z D F2 D | A, (D D) z F E D2 :|
(f2 g/f/) e z d c2 A | B z (e e) z d c2 A | (B2 c/B/) A z G F D2 | A,2 (D D) z F E D2 |
(f2 g/f/) e z d c2 A | B z (e e2) z d c2 A | B3 A2 G F E2 | (DF) z (EG) z F2 E ||


